build/img/mail-black.svg

<svg width="24" height="24" viewBox="0 0 24 24" xmlns="http://www.w3.org/2000/svg">
<path d="M6.29132 7.27498C5.98695 6.99403 5.51246 7.01301 5.23151 7.31738C4.95055 7.62174 4.96953 8.09624 5.2739 8.37719L6.29132 7.27498ZM12 13.5652L11.4913 14.1163C11.7786 14.3815 12.2214 14.3815 12.5087 14.1163L12 13.5652ZM18.7261 8.37719C19.0305 8.09624 19.0494 7.62174 18.7685 7.31738C18.4875 7.01301 18.013 6.99403 17.7087 7.27498L18.7261 8.37719ZM9.66076 12.1825C9.95366 11.8896 9.95366 11.4147 9.66076 11.1218C9.36787 10.829 8.893 10.829 8.6001 11.1218L9.66076 12.1825ZM5.25228 14.4697C4.95939 14.7626 4.95939 15.2374 5.25228 15.5303C5.54517 15.8232 6.02005 15.8232 6.31294 15.5303L5.25228 14.4697ZM15.8782 11.1218C15.5853 10.829 15.1104 10.829 14.8175 11.1218C14.5246 11.4147 14.5246 11.8896 14.8175 12.1825L15.8782 11.1218ZM18.1653 15.5303C18.4582 15.8232 18.9331 15.8232 19.226 15.5303C19.5189 15.2374 19.5189 14.7626 19.226 14.4697L18.1653 15.5303ZM2.91304 4.75H21.087V3.25H2.91304V4.75ZM22.25 5.91304V17.3913H23.75V5.91304H22.25ZM21.087 18.5543H2.91304V20.0543H21.087V18.5543ZM1.75 17.3913V5.91304H0.25V17.3913H1.75ZM2.91304 18.5543C2.27071 18.5543 1.75 18.0336 1.75 17.3913H0.25C0.25 18.8621 1.44228 20.0543 2.91304 20.0543V18.5543ZM22.25 17.3913C22.25 18.0336 21.7293 18.5543 21.087 18.5543V20.0543C22.5577 20.0543 23.75 18.8621 23.75 17.3913H22.25ZM21.087 4.75C21.7293 4.75 22.25 5.27071 22.25 5.91304H23.75C23.75 4.44229 22.5577 3.25 21.087 3.25V4.75ZM2.91304 3.25C1.44229 3.25 0.25 4.44229 0.25 5.91304H1.75C1.75 5.27071 2.27071 4.75 2.91304 4.75V3.25ZM5.2739 8.37719L11.4913 14.1163L12.5087 13.0141L6.29132 7.27498L5.2739 8.37719ZM12.5087 14.1163L18.7261 8.37719L17.7087 7.27498L11.4913 13.0141L12.5087 14.1163ZM8.6001 11.1218L5.25228 14.4697L6.31294 15.5303L9.66076 12.1825L8.6001 11.1218ZM14.8175 12.1825L18.1653 15.5303L19.226 14.4697L15.8782 11.1218L14.8175 12.1825Z" fill="#1A1A1A"/>
</svg>

<svg width="24" height="24" viewBox="0 0 24 24" xmlns="http://www.w3.org/2000/svg"><path d="M6.291 7.275a.75.75 0 00-1.017 1.102L6.29 7.275zM12 13.565l-.509.551a.75.75 0 001.018 0l-.509-.55zm6.726-5.188a.75.75 0 00-1.017-1.102l1.017 1.102zm-9.065 3.805a.75.75 0 00-1.06-1.06l1.06 1.06zM5.252 14.47a.75.75 0 101.06 1.06l-1.06-1.06zm10.626-3.348a.75.75 0 00-1.06 1.06l1.06-1.06zm2.287 4.408a.75.75 0 001.061-1.06l-1.06 1.06zM2.913 4.75h18.174v-1.5H2.913v1.5zM22.25 5.913v11.478h1.5V5.913h-1.5zm-1.163 12.641H2.913v1.5h18.174v-1.5zM1.75 17.391V5.913H.25v11.478h1.5zm1.163 1.163c-.642 0-1.163-.52-1.163-1.163H.25a2.663 2.663 0 002.663 2.663v-1.5zm19.337-1.163c0 .643-.52 1.163-1.163 1.163v1.5a2.663 2.663 0 002.663-2.663h-1.5zM21.087 4.75c.642 0 1.163.52 1.163 1.163h1.5a2.663 2.663 0 00-2.663-2.663v1.5zM2.913 3.25A2.663 2.663 0 00.25 5.913h1.5c0-.642.52-1.163 1.163-1.163v-1.5zm2.36 5.127l6.218 5.74 1.018-1.103L6.29 7.275 5.274 8.377zm7.236 5.74l6.217-5.74-1.017-1.102-6.218 5.74 1.018 1.101zM8.6 11.121L5.252 14.47l1.06 1.06 3.349-3.348-1.06-1.06zm6.218 1.06l3.347 3.348 1.061-1.06-3.348-3.348-1.06 1.06z" fill="#1A1A1A"/></svg>
